svg/fluentui-system-icons/ic_fluent_money_dismiss_20_filled.svg

<svg width="20" height="20" viewBox="0 0 20 20" fill="none" xmlns="http://www.w3.org/2000/svg">
<path d="M3.5 4C2.67157 4 2 4.67157 2 5.5V12.5C2 13.3284 2.67157 14 3.5 14H9.02242C9.27504 11.1968 11.631 9 14.5 9C15.02 9 15.5232 9.07217 16 9.20703V5.5C16 4.67157 15.3284 4 14.5 4H3.5ZM6 6C6 7.10457 5.10457 8 4 8H3V7H4C4.55228 7 5 6.55228 5 6V5H6V6ZM9 10.75C8.0335 10.75 7.25 9.9665 7.25 9C7.25 8.0335 8.0335 7.25 9 7.25C9.9665 7.25 10.75 8.0335 10.75 9C10.75 9.9665 9.9665 10.75 9 10.75ZM3 11V10H4C5.10457 10 6 10.8954 6 12V13H5V12C5 11.4477 4.55228 11 4 11H3ZM13 6C13 6.55228 13.4477 7 14 7H15V8H14C12.8954 8 12 7.10457 12 6V5H13V6ZM4.08545 15H9.02242C9.05336 15.3434 9.11587 15.6777 9.20703 16H5.5001C4.84699 16 4.29137 15.5826 4.08545 15ZM18.0001 7.49997V10.2572C17.693 10.0036 17.3579 9.78267 17.0001 9.59976V6.08533C17.5827 6.29125 18.0001 6.84686 18.0001 7.49997ZM19 14.5C19 16.9853 16.9853 19 14.5 19C12.0147 19 10 16.9853 10 14.5C10 12.0147 12.0147 10 14.5 10C16.9853 10 19 12.0147 19 14.5ZM15.2071 14.5L16.3536 13.3536C16.5488 13.1583 16.5488 12.8417 16.3536 12.6464C16.1583 12.4512 15.8417 12.4512 15.6464 12.6464L14.5 13.7929L13.3536 12.6464C13.1583 12.4512 12.8417 12.4512 12.6464 12.6464C12.4512 12.8417 12.4512 13.1583 12.6464 13.3536L13.7929 14.5L12.6464 15.6464C12.4512 15.8417 12.4512 16.1583 12.6464 16.3536C12.8417 16.5488 13.1583 16.5488 13.3536 16.3536L14.5 15.2071L15.6464 16.3536C15.8417 16.5488 16.1583 16.5488 16.3536 16.3536C16.5488 16.1583 16.5488 15.8417 16.3536 15.6464L15.2071 14.5Z" fill="#212121"/>
</svg>

<svg xmlns="http://www.w3.org/2000/svg" width="20" height="20"><path d="M3.5 4A1.5 1.5 0 0 0 2 5.5v7A1.5 1.5 0 0 0 3.5 14h5.522A5.5 5.5 0 0 1 16 9.207V5.5A1.5 1.5 0 0 0 14.5 4h-11ZM6 6a2 2 0 0 1-2 2H3V7h1a1 1 0 0 0 1-1V5h1v1Zm3 4.75a1.75 1.75 0 1 1 0-3.5 1.75 1.75 0 0 1 0 3.5ZM3 11v-1h1a2 2 0 0 1 2 2v1H5v-1a1 1 0 0 0-1-1H3Zm10-5a1 1 0 0 0 1 1h1v1h-1a2 2 0 0 1-2-2V5h1v1Zm-8.915 9h4.937a5.5 5.5 0 0 0 .185 1H5.5a1.5 1.5 0 0 1-1.415-1ZM18 7.5v2.757a5.509 5.509 0 0 0-1-.657V6.085A1.5 1.5 0 0 1 18 7.5Zm1 7a4.5 4.5 0 1 1-9 0 4.5 4.5 0 0 1 9 0Zm-3.793 0 1.147-1.146a.5.5 0 0 0-.708-.708L14.5 13.793l-1.146-1.147a.5.5 0 0 0-.708.708l1.147 1.146-1.147 1.146a.5.5 0 0 0 .708.708l1.146-1.147 1.146 1.147a.5.5 0 0 0 .708-.708L15.207 14.5Z"/></svg>
